src/assets/filled/Cards.svg

<svg width="24" height="24" viewBox="0 0 24 24"  xmlns="http://www.w3.org/2000/svg">
<path d="M15.22 6.54999H5.78C5.5 6.54999 5.24 6.55999 5 6.56999C2.63 6.70999 2 7.57999 2 10.28V10.86C2 11.41 2.45 11.86 3 11.86H18C18.55 11.86 19 11.41 19 10.86V10.28C19 7.29999 18.24 6.54999 15.22 6.54999Z" />
<path d="M3 13.36C2.45 13.36 2 13.81 2 14.36V17.27C2 20.25 2.76 21 5.78 21H15.22C18.19 21 18.97 20.28 19 17.43V14.36C19 13.81 18.55 13.36 18 13.36H3ZM6.96 18.56H5.25C4.84 18.56 4.5 18.22 4.5 17.81C4.5 17.4 4.84 17.06 5.25 17.06H6.97C7.38 17.06 7.72 17.4 7.72 17.81C7.72 18.22 7.38 18.56 6.96 18.56ZM12.55 18.56H9.11C8.7 18.56 8.36 18.22 8.36 17.81C8.36 17.4 8.7 17.06 9.11 17.06H12.55C12.96 17.06 13.3 17.4 13.3 17.81C13.3 18.22 12.97 18.56 12.55 18.56Z" />
<path d="M22.0001 13.33V8.08998C22.0001 4.95998 20.2101 3.59998 17.5101 3.59998H8.58011C7.82011 3.59998 7.14011 3.70998 6.54011 3.93998C6.07011 4.10998 5.65011 4.35998 5.31011 4.68998C5.13011 4.85998 5.27011 5.13998 5.53011 5.13998H16.4001C18.6501 5.13998 20.4701 6.95998 20.4701 9.20998V16.38C20.4701 16.63 20.7401 16.77 20.9201 16.59C21.6101 15.86 22.0001 14.79 22.0001 13.33Z" />
</svg>

<?xml version="1.0" encoding="UTF-8"?>
<svg width="24" height="24" viewBox="0 0 24 24" xmlns="http://www.w3.org/2000/svg">
 <path d="m15.22 6.55h-9.44c-0.28 0-0.54 0.01-0.78 0.02-2.37 0.14-3 1.01-3 3.71v0.58c0 0.55 0.45 1 1 1h15c0.55 0 1-0.45 1-1v-0.58c0-2.98-0.76-3.73-3.78-3.73z"/>
 <path d="m3 13.36c-0.55 0-1 0.45-1 1v2.91c0 2.98 0.76 3.73 3.78 3.73h9.44c2.97 0 3.75-0.72 3.78-3.57v-3.07c0-0.55-0.45-1-1-1h-15zm3.96 5.2h-1.71c-0.41 0-0.75-0.34-0.75-0.75s0.34-0.75 0.75-0.75h1.72c0.41 0 0.75 0.34 0.75 0.75s-0.34 0.75-0.76 0.75zm5.59 0h-3.44c-0.41 0-0.75-0.34-0.75-0.75s0.34-0.75 0.75-0.75h3.44c0.41 0 0.75 0.34 0.75 0.75s-0.33 0.75-0.75 0.75z"/>
 <path d="m22 13.33v-5.24c0-3.13-1.79-4.49-4.49-4.49h-8.93c-0.76 0-1.44 0.11-2.04 0.34-0.47 0.17-0.89 0.42-1.23 0.75-0.18 0.17-0.04 0.45 0.22 0.45h10.87c2.25 0 4.07 1.82 4.07 4.07v7.17c0 0.25 0.27 0.39 0.45 0.21 0.69-0.73 1.08-1.8 1.08-3.26z"/>
</svg>
